X:1
T:Grace Hayes' Delight
R:Jig
M:6/8
L:1/8
%%printtempo 0
Q:160
K:G
D|"G"G2c B2c|dBd "C"efg|"G"G2cB2c|dBG "D"AFD|
"C"E2C CEG| "D"F2D D2c| "G"B/c/dB "D"cAF|1 "G"G3 G2 :|2 "G"G3 G3||
"G"d2g f2g|"D"afd "A"e^cA|"D" fga "Bm"B^cd|"Em"efd "A"^cBA|
"D"afa "Em"geg|"D"fdf "A"e^cA|"G"Bgf "A"ed^c|"D"d2d "D7"dcB|
"C"c2c cac|"G"B2B BgB|"Am"ABA ABc|"G" dBG "D"AFD|
"C"E2C CEG|"D"F2D D2c|"G"B/c/dB "D"cAF|"G"G3 G2|]
